X:1
T:Sia maledett'amore
T:Sia maledett'amore 
T:Jhan Gero
T:Source : Trium vocum cantiones---Nürnberg---J.Petreius---1541. Editor: André Vierendeels (21/09/16).
T:Notes : Original clefs : C4, C4, F4 Editorial accidentals above the staff Original note values have been halved Square bracket indicates ligature
T:©
T:©
T:©
T:©
T:©
T:©
C:Jhan Gero
Z:©
%%score [ 1 2 3 ]
L:1/8
Q:1/4=111
M:2/2
K:F
V:1 treble-8 nm="Tenor 1" snm="T 1"
V:2 treble-8 nm="Tenor 2" snm="T 2"
V:3 bass nm="Bass" snm="B"
V:1
 z8 | z8 | z4 F4 | c2 c2 d2 f2- | f2 e2 d4 | c8 | z2 c2 c3 B | A2 G2 F2 E2 | F2 F2 G4 | A4 c4 | %10
w: ||Sia|ma- le- dett' a-|* * mo-|re|e chion- quin|lui gia- mai po-|ne sua spe-|me, ma-|
 c2 c2 d4 | f4 e2 dc | d4 c2 f2 | f2 e2 f3 e/d/ | c2 d3 c c2- | c2 B2 c4 | d4 c2 c2 | d2 e2 f4 | %18
w: le det- te|sue fa- * *|ce i stra-|li, e lar- * *||* * cho,|i stra- li|e l'ar- *|
 e8 | c8 | z2 c2 f4- | f2 e2 d2 c2 | d6 c2 | B2 A2 B4 | A4 G4- | G8 | z2 c2 c2 B2 | c2 A2 G2 c2 | %28
w: |cho,|i quai|_ sott' om- bra|di dol-|cez- za po-|* i,|_|rec- can sec'|a- la fin do-|
 A2 B2 c4 | B2 A2 G4 | F4 c4 | c6 c2 | A4 B4 | G4 c4 | c2 c2 d2 d2 | e4 c4 | d2 e2 f4- | %37
w: gli'e mar- ti-||re, mi-|ser chen|co- lu-|i, che|per a- mor se|trov' in|fest' e gio-|
 f2 e2 d2 c2 | B4 A2 c2 | B2 A4 G2 | A8 | c4 d2 c2 | A2 B2 c4 | c8 | z2 c2 c2 c2 | f4 e2 f2 | %46
w: |* ia, in|fest' e gio-|ia,|che po- scia|pien di no-|ia,|in for- tu-|na- to sta-|
 d4 c3 B | A2 B2 G4 | F8 | c4 c2 c2 | d8 | c4 e4 | f2 d2 e4 | f8 | e4 z2 c2 | c4 A4 | z2 c2 c4 | %57
w: to si ri-|tro- * *|va,|fu- gian- lo|don-|que coi|sens' e col|co-|re, e|gri- diam|mor' a-|
 A4 z2 c2 | c3 B A2 B2 | G4 F4 | z2 c2 c4 | A4 z2 c2 | c4 A4 | z2 c2 c3 B | A2 B2 G4 | F8 | F8- | %67
w: mor mo-|ra _ _ l'a-|mo- ,|e- gri-|diam mor'|a- mor|mo- ra _|_ l'a- mo-|re.|_|
 F8 |] %68
w: |
V:2
 C4 F2 F2 | G2 B4 A2 | G4 F2 A2- | AG c4 B2 | c4 G4 | z2 c2 c3 B | A2 G2 F2 C2 | D2 E2 F2 G2- | %8
w: Sia ma- le-|dett' a- *|mo- * *||* re,|e chion- quin|lui gia- mai po-|ne sua spe- *|
 GF F4 E2 | F4 C4 | z4 F4 | F2 F2 G4 | B4 A2 GF | G4 F4 | A4 G2 A2- | A2 GF G2 c2 | %16
w: |* me,|ma-|le- det te|sue _ _ _|_ fa-||* * * ce, i|
"^-natural" c2 B2 c2 FG | AB c4 B2 | c2 G2 c4- | c2 B2 A2 G2 | A6 G2 | F2 G4 A2- | A2 G2 A4 | %23
w: stra- li, e l'ar- *||cho, i quai|_ sott' om- bra|di dol-|cez- za po-|* * i,|
 f6 e2 | c8- | c4 z2 G2 | G2 F2 G3 F | E2 F2 F2 E2 | F3 G A2 G2- | GF F4 E2 | F8 | G4 G2 G2 | %32
w: po- *|i,|_ re-|can se- co al-|la fin do- gli-|a, e mar- *|* * ti- *|re,|mi- ser chen|
 F4 F4 | E8 | z2 F2 F2 F2 | G2 G2 A4- | A2 G2 A2 B2 | c4 B2 A2- | A2 G2 A3 G | F2 E2 D4 | %40
w: co- lu-|i|che per a-|mor se trov'|_ in fe- sta,|e gio- *|||
 E4 z2 F2 | F2 F2 D2 E2 | F4 G4- | G8 | A4 z2 F2 | F2 F2 c2 A2 | B4 A2 G2- | GF F4 E2 | F8 | %49
w: ia, che|po- scia pien di-|no- i-||a, in|for- tu- na- to|sta- to si|_ ri- tro- *|va,|
 A4 A2 A2 | B8 | A4 c4 | A2 B2 G2 c2- |"^b""^-natural" c2 BA B4 | c2 c2 c4 | A4 z2 c2 | c4 A4 | %57
w: fu- gian- lo|don-|que coi|sens' e col _|_ co- * *|re, e- gri-|diam mor'|a- mor|
 c4 c3 B | A2 G3 F F2- | F2 E2 F2 c2 | c4 A4 | z2 c2 c4 | A4 z2 c2 | c3 B A2 G2- | GF F4 E2 | %65
w: mo- ra l'a-|mo- * * *|* * re, e-|gri- diam|mor' a-|mor, mor-|a l'a- mo- *||
 F4 D4 | D2 C2 D4 | C8 |] %68
w: re, mo-|ra l'a- mo-|re.|
V:3
 z8 | z4 F,,4 | C,2 C,2 D,2 F,2- | F,2 E,2 D,4 |"^-natural" C,2 C4 B,2 | C4 z2 C2 | C3 B, A,2 G,2 | %7
w: |Sia|ma- le- dett' a-|* * mo-|re, a- mo-|re e|chion- quin lui gia-|
 F,2 C,2 D,2 C,2 | B,,2 A,,2 G,,4 | F,,2 F,4 E,2 | F,3 E, D,4- | D,4 C,4 | z4 C,4 | C,2 C,2 D,4 | %14
w: mai po- ne sua|spe _ _|me, po- *|ne sua spe-|* me,|ma-|le- det- te|
 F,4 E,2 D,C, | D,4 C,4 | G,4 A,3 G, | F,2 E,2 D,4 | C,4 z2 C,2 | F,6 E,2 | D,2 C,2 D,4- | %21
w: sue fa- * *|* ce,|i stra- li,|e l'ar- *|cho i|quai sott'|om- bra di|
 D,2 C,2 B,,2 A,,2 | B,,4 A,,4 | D,6 E,2 | F,4 C,4 | z2 C,2 C,2 B,,2 | C,2 A,,2 G,,2 G,,2 | %27
w: _ dol- cez- za|po- i,|po- *|* i,|re- can se-|co al- la fin|
 A,,2 F,,2 C,4 | D,4 C,3 D, | _E,2 F,2 C,4 | F,,8 | C,4 C,2 C,2 | D,4 B,,4 | C,6 C,2 | %34
w: do- gli- a|_ e mar-|ti- * *|re,|mi- ser cgen|co- lu-|i, cge|
 F,3 E, D,2 D,2 | C,4 F,4 | F,2 E,2 D,4 | C,4 z2 C,2 | D,2 E,2 F,3 E, | D,2 C,2 B,,4 | A,,4 F,,4 | %41
w: per a- mor se|trov' in|fes- ta'e gio-|ia, in|fest' e gio- *||ia, che|
 F,,2 F,,2 F,2 C,2 | D,4 C,4- | C,2 C,2 C,2 C,2 | F,4 E,2 F,2 | D,4 C,2 D,2 | B,,C,D,E, F,2 C,2 | %47
w: po- scia pien di|no- ia,|_ in for- tu-|na- * to|sta- to si|ri- * * * * tro-|
 D,2 B,,2 C,4 | F,,8 | F,4 F,2 F,2 | B,,8 | F,4 C,4 | D,2 B,,2 C,4 | D,8 | C,8 | z2 F,2 F,4 | %56
w: |va,|fu gian- lo|don-|que coi|sens' e col|co-|re,|e gri-|
 C,4 z2 F,2 | F,4 C,4- | C,2 C,2 D,2 B,,2 | C,4 F,,4- | F,,4 z2 F,2 | F,4 C,4 | z2 F,2 F,4 | %63
w: diam mor'|a- mor,|_ l'a- mo- *|* re,|_ e-|gri- diam|mor' a-|
 C,6 C,2 | D,2 B,,2 C,4 | F,,4 B,,4 | B,,2 A,,2 B,,4 | F,,8 |] %68
w: mor, l'a-|mo- * *|re, mo-|ra j'a- mo-|re.|

